packages/foundations/assets/icons/functional/images/arrows/chevron_up.svg

<svg xmlns="http://www.w3.org/2000/svg" width="32" height="32" fill="none"><path fill="#1A1C1F" fill-rule="evenodd" d="M15.76 11.035a1.3 1.3 0 0 0-.267.099c-.058.033-1.971 1.927-4.249 4.209-3.745 3.751-4.149 4.173-4.204 4.383a1.002 1.002 0 0 0 1.234 1.234c.21-.055.598-.426 3.979-3.803L16 13.414l3.747 3.742c3.945 3.941 3.854 3.859 4.306 3.856.207-.001.55-.179.707-.366.133-.158.253-.464.253-.646 0-.395.031-.361-4.257-4.657-2.279-2.283-4.203-4.182-4.276-4.22a1.24 1.24 0 0 0-.72-.088"/></svg>

<svg width="32" height="32" viewBox="0 0 32 32" fill="none" xmlns="http://www.w3.org/2000/svg"><path d="M15.760 11.035 C 15.672 11.057,15.552 11.101,15.493 11.134 C 15.435 11.167,13.522 13.061,11.244 15.343 C 7.499 19.094,7.095 19.516,7.040 19.726 C 6.841 20.488,7.512 21.159,8.274 20.960 C 8.484 20.905,8.872 20.534,12.253 17.157 L 16.000 13.414 19.747 17.156 C 23.692 21.097,23.601 21.015,24.053 21.012 C 24.260 21.011,24.603 20.833,24.760 20.646 C 24.893 20.488,25.013 20.182,25.013 20.000 C 25.013 19.605,25.044 19.639,20.756 15.343 C 18.477 13.060,16.553 11.161,16.480 11.123 C 16.301 11.028,15.956 10.986,15.760 11.035 " fill="#1A1C1F" stroke="none" fill-rule="evenodd"></path></svg>
